build/assets/images/proyectos/logos/fichas/logo-dkv.svg

<svg width="190" height="82" viewBox="0 0 190 82" fill="none" xmlns="http://www.w3.org/2000/svg">
<path d="M39.1177 22.9916C38.958 15.1681 35.7647 10.3782 25.2269 10.3782C25.2269 10.3782 19.3194 10.2185 19.3194 10.3782L19.1597 26.6639C11.4958 27.7815 2.87398 30.3361 1.27734 30.6555L1.43701 0.638672H22.6723C36.0841 0.638672 44.8656 1.59665 50.9328 7.82354C53.6471 10.5378 56.2017 14.5294 56.6807 21.7143C50.6135 22.0336 45.1849 22.1933 39.1177 22.9916Z" fill="white"/>
<path d="M38.6387 26.0251C49.6555 24.9075 57.1597 24.4285 57.1597 24.4285C57.1597 31.1343 54.4454 36.4033 50.6135 39.5965C45.3446 43.9075 40.0757 45.0251 26.1849 45.0251H1.59668V33.8486C3.51265 33.3696 11.6555 30.815 19.3194 29.857C19.3194 29.857 19.1597 35.6049 19.3194 35.6049H25.0673C30.3362 35.2856 38.479 32.8906 38.6387 26.0251Z" fill="white"/>
<path d="M175.311 30.4958C169.882 29.0588 165.092 27.4622 160.302 26.5042L170.202 0.79834H188.403L175.311 30.4958Z" fill="white"/>
<path d="M136.672 22.5126L127.252 0.638672H147.051L156.63 25.5462C149.445 24.1093 143.219 23.3109 136.672 22.5126Z" fill="white"/>
<path d="M157.748 28.4201C157.748 28.4201 158.546 30.3361 158.706 30.0167L159.345 28.7394C164.294 29.8571 168.765 31.6134 174.353 33.0503L169.563 44.8655H146.891L138.109 25.2268C144.656 26.0251 150.563 26.9831 157.748 28.4201Z" fill="white"/>
<path d="M107.933 20.916C101.706 20.7563 93.5631 20.5967 86.8572 20.5967C87.0168 20.5967 102.504 0.638672 102.504 0.638672H124.219L107.933 20.916Z" fill="white"/>
<path d="M87.9749 23.1514C88.6135 23.1514 101.706 23.1514 109.21 23.79L126.613 44.8657H103.782L87.9749 23.1514Z" fill="white"/>
<path d="M84.3025 23.1514V44.5463H66.2605V23.9497C72.1681 23.6304 77.916 23.311 84.3025 23.1514Z" fill="white"/>
<path d="M84.3025 20.437C77.7563 20.5966 72.0084 20.5966 66.1008 21.0756V0.319336H84.3025V20.437Z" fill="white"/>
<path d="M11.3361 58.5966C11.4957 58.2773 11.6554 57.7983 11.4957 57.7983C10.5378 57 8.78146 56.521 7.34448 56.521C4.6302 56.521 2.23524 58.2773 2.23524 61.4706C2.23524 66.7395 10.0588 65.7815 10.0588 70.0924C10.0588 71.8487 8.46213 72.9663 6.54616 72.9663C5.42851 72.9663 3.99155 72.4874 2.8739 71.689C2.71424 71.5294 2.39491 71.689 2.23524 72.168L2.07558 72.4874C1.75625 72.9664 1.75624 73.2857 1.91591 73.4453C3.03355 74.2437 4.78987 74.8823 6.8655 74.8823C10.5378 74.8823 12.4537 72.8067 12.4537 69.7731C12.4537 64.1848 4.6302 64.8235 4.6302 61.1512C4.6302 59.8739 5.58819 58.5966 7.66382 58.5966C8.94113 58.5966 9.8991 58.9159 10.6974 59.3949C10.8571 59.5546 11.1764 59.3949 11.3361 58.9159V58.5966ZM24.2688 61.4706C23.4705 61.4706 23.4705 61.4705 23.3109 61.7899L23.1512 62.9075C22.5126 61.9495 21.2352 61.3109 19.7983 61.3109C16.605 61.3109 14.21 64.0252 14.21 68.3361C14.21 71.8487 15.8067 74.8823 19.4789 74.8823C21.0756 74.8823 22.5126 74.2437 23.1512 73.126L23.3109 74.2437C23.3109 74.4033 23.4705 74.563 24.2688 74.563H24.4285C25.2268 74.563 25.3865 74.4033 25.3865 74.2437C25.2268 72.9664 25.2268 71.3697 25.2268 68.9748V65.4622C25.2268 63.8655 25.2268 62.2689 25.2268 61.7899C25.2268 61.6302 25.2268 61.4706 24.2688 61.4706ZM22.9915 68.4958C22.9915 70.5714 22.8319 71.3697 22.3529 71.8487C21.7142 72.4874 20.7562 72.8067 19.9579 72.8067C17.4033 72.8067 16.605 70.4117 16.605 68.1764C16.605 65.3025 17.8823 63.3865 20.1176 63.3865C21.2352 63.3865 22.3529 64.1848 22.9915 64.9832C22.9915 64.9832 22.9915 68.4958 22.9915 68.4958ZM29.6974 55.7227C28.8991 55.7227 28.5798 55.8823 28.5798 56.042C28.7394 57 28.7394 60.1932 28.7394 62.7479V71.0504C28.7394 72.3277 28.8991 73.126 29.2184 73.605C29.6974 74.2437 30.3361 74.4033 30.9747 74.4033C31.2941 74.4033 31.7731 74.2437 32.0924 74.2437C32.252 74.2437 32.252 74.084 32.252 73.4453V73.4453C32.252 72.9664 32.252 72.8067 32.0924 72.8067H31.9327C31.1344 72.8067 30.9747 72.4874 30.9747 71.5294V63.3865C30.9747 59.7142 30.9747 56.8403 30.8151 56.042C30.8151 55.8823 30.6554 55.7227 29.6974 55.7227C29.6974 55.7227 29.8571 55.7227 29.6974 55.7227ZM35.9243 61.4706C34.9663 61.4706 34.9663 61.6302 34.9663 61.7899V69.2941C34.9663 71.2101 35.2857 72.647 36.2436 73.4453C37.042 74.2437 38.1596 74.7227 39.4369 74.7227C41.1932 74.7227 42.6302 74.084 43.4285 73.126V74.2437C43.4285 74.4033 43.5882 74.563 44.3865 74.563H44.5462C45.5041 74.563 45.5041 74.4033 45.5041 74.2437C45.5041 73.605 45.5041 71.8487 45.5041 70.2521V61.7899C45.5041 61.6302 45.3445 61.4706 44.5462 61.4706H44.3865C43.5882 61.4706 43.4285 61.6302 43.4285 61.7899V67.8571C43.4285 70.5714 43.1092 71.3697 42.6302 71.8487C41.9915 72.4874 40.8739 72.8067 39.9159 72.8067C38.9579 72.8067 38.1596 72.4874 37.6806 72.0084C37.2016 71.3697 37.042 70.4117 37.042 68.3361V61.7899C37.042 61.6302 36.8823 61.4706 36.084 61.4706H35.9243ZM58.2773 55.7227C57.4789 55.7227 57.3193 55.8823 57.3193 56.042V61.9496C56.6806 61.4706 55.563 61.1512 54.605 61.1512C50.6134 61.1512 48.6974 64.5042 48.6974 68.1764C48.6974 72.168 50.6134 74.7227 53.9663 74.7227C55.7226 74.7227 56.9999 73.9243 57.6386 73.126C57.9579 74.084 58.5966 74.563 59.3949 74.563C59.8739 74.563 60.1932 74.563 60.5125 74.4033C60.6722 74.4033 60.6722 74.2437 60.6722 73.605V73.4453C60.6722 72.9664 60.5125 72.8067 60.5125 72.8067C59.8739 72.8067 59.7142 72.647 59.7142 71.5294V56.2016C59.3949 55.8823 59.2352 55.7227 58.2773 55.7227ZM57.3193 68.4958C57.3193 70.5714 57.1596 71.3697 56.6806 72.0084C56.042 72.647 55.2436 72.8067 54.4453 72.8067C52.5294 72.8067 51.0924 71.21 51.0924 68.1764C51.0924 65.1428 52.5293 63.2269 54.9243 63.2269C55.8823 63.2269 56.9999 63.5462 57.4789 64.1848V68.4958H57.3193ZM70.5714 61.7899C70.5714 61.6302 70.252 61.4706 69.294 61.4706C68.3361 61.4706 68.0167 61.4705 68.1764 61.7899L72.9663 74.563C72.0083 77.2773 71.0504 78.2353 69.4537 78.2353C68.9747 78.2353 68.4957 78.0756 68.1764 78.0756C67.8571 77.9159 67.8571 78.0756 67.6974 78.7143L67.5378 79.0336C67.3781 79.5126 67.3781 79.6722 67.6974 79.8319C68.1764 80.1512 68.9747 80.3109 69.6134 80.3109C71.0504 80.3109 72.168 79.8319 73.2856 78.8739C74.084 78.0756 74.7226 76.7983 75.3613 74.8823L79.9915 61.9496C80.1512 61.6302 79.8319 61.6302 78.8739 61.6302C78.0756 61.6302 77.9159 61.6302 77.7562 61.9496L75.521 68.3361C75.042 69.7731 74.563 71.2101 74.2436 72.3277C73.9243 71.0504 73.605 69.9327 72.9663 68.1764L70.5714 61.7899ZM90.21 69.4537C90.21 68.0168 90.21 66.7395 90.3697 66.1008C90.5294 64.9832 90.689 64.6638 91.0083 64.3445C91.647 63.7059 92.4453 63.3865 93.4033 63.3865C95.4789 63.3865 96.4369 64.9832 96.4369 67.8571C96.4369 70.7311 94.9999 72.8067 92.2857 72.8067C91.647 72.8067 90.8487 72.647 90.21 72.3277V69.4537ZM88.9327 55.7227C87.9747 55.7227 87.8151 55.8823 87.8151 56.042V73.605C87.8151 73.7647 87.8151 73.7647 87.9747 73.9243C89.0924 74.4033 90.5293 74.7227 92.4453 74.7227C96.5966 74.7227 98.6722 72.0084 98.6722 67.6974C98.6722 66.2605 98.3529 64.9832 97.8739 64.0252C97.0756 62.2689 95.6386 61.3109 93.7226 61.3109C92.2856 61.3109 90.8487 61.9496 90.0503 62.7479V56.042C90.21 55.8823 90.0504 55.7227 88.9327 55.7227ZM102.664 61.4706C101.706 61.4706 101.706 61.6302 101.706 61.7899V74.2437C101.706 74.4033 101.706 74.563 102.664 74.563H102.823C103.781 74.563 103.781 74.4033 103.781 74.2437V61.7899C103.781 61.6302 103.781 61.4706 102.664 61.4706C102.664 61.4706 102.823 61.4706 102.664 61.4706ZM101.227 57.479C101.227 58.2773 101.865 59.0756 102.823 59.0756C103.622 59.0756 104.42 58.4369 104.42 57.479C104.42 56.521 103.781 55.8823 102.823 55.8823C101.865 56.042 101.227 56.6806 101.227 57.479ZM117.672 68.8151C117.832 68.8151 117.832 68.6554 117.832 67.8571C117.832 66.4201 117.672 64.9832 117.034 63.8655C116.235 62.2689 114.798 61.1512 112.563 61.1512C108.891 61.1512 106.655 64.0252 106.655 68.1764C106.655 72.168 108.731 74.7227 112.563 74.7227C114.16 74.7227 115.756 74.4033 117.034 73.605C117.193 73.4453 117.193 73.2857 117.034 72.647L116.874 72.3277C116.714 71.689 116.555 71.689 116.235 71.8487C115.118 72.3277 114 72.647 113.042 72.647C111.765 72.647 110.807 72.3277 110.168 71.689C109.37 71.0504 109.05 69.9327 108.891 68.6554L117.672 68.8151ZM109.05 67.0588C109.37 64.5042 110.807 63.3865 112.563 63.3865C114.639 63.3865 115.597 65.3025 115.597 67.0588H109.05ZM121.664 61.4706C120.706 61.4706 120.706 61.6302 120.706 61.7899C120.706 62.4285 120.706 64.1848 120.706 65.7815V74.2437C120.706 74.4033 120.865 74.563 121.664 74.563H121.823C122.781 74.563 122.781 74.4033 122.781 74.2437V69.4537C122.781 68.0168 122.781 66.7395 122.941 66.1008C123.101 64.9832 123.26 64.6638 123.58 64.3445C124.218 63.7059 125.336 63.3865 126.134 63.3865C127.252 63.3865 128.05 63.7058 128.37 64.1848C129.008 64.8235 129.008 65.7815 129.008 67.8571V74.2437C129.008 74.4033 129.168 74.563 129.966 74.563H130.126C131.084 74.563 131.084 74.4033 131.084 74.2437V66.7395C131.084 64.8235 130.765 63.3865 129.807 62.5882C129.008 61.7899 127.891 61.3109 126.454 61.3109C125.017 61.3109 123.42 61.9495 122.462 62.9075V61.7899C122.781 61.6302 122.781 61.4706 121.664 61.4706ZM145.134 68.8151C145.294 68.8151 145.294 68.6554 145.294 67.8571C145.294 66.4201 145.134 64.9832 144.496 63.8655C143.697 62.2689 142.26 61.1512 140.025 61.1512C136.353 61.1512 134.118 64.0252 134.118 68.1764C134.118 72.168 136.193 74.7227 140.025 74.7227C141.622 74.7227 143.218 74.4033 144.496 73.605C144.655 73.4453 144.655 73.2857 144.496 72.647L144.336 72.3277C144.176 71.689 144.017 71.689 143.697 71.8487C142.58 72.3277 141.462 72.647 140.504 72.647C139.227 72.647 138.269 72.3277 137.63 71.689C136.832 71.0504 136.513 69.9327 136.353 68.6554L145.134 68.8151ZM136.672 67.0588C136.992 64.5042 138.429 63.3865 140.185 63.3865C142.26 63.3865 143.218 65.3025 143.218 67.0588H136.672ZM155.992 63.5462C156.311 63.0672 156.311 62.7479 156.151 62.5882C155.193 61.7899 153.916 61.3109 152.319 61.3109C149.924 61.3109 147.849 62.7479 147.849 65.1428C147.849 66.1008 148.168 66.8991 148.807 67.5378C149.445 68.1764 150.403 68.4958 151.681 68.8151C152.958 69.1344 154.555 69.4538 154.555 70.8907C154.555 72.3277 152.958 72.8067 151.84 72.8067C150.723 72.8067 149.605 72.3277 148.647 71.8487C148.328 71.689 148.168 71.689 147.849 72.3277L147.689 72.647C147.37 73.126 147.37 73.2857 147.529 73.605C148.487 74.2437 149.924 74.8823 151.521 74.8823C154.235 74.8823 156.471 73.4453 156.471 70.8907C156.471 68.3361 154.395 67.5378 152.319 67.0588C151.202 66.7395 149.765 66.4201 149.765 65.1428C149.765 63.8655 151.202 63.3865 152.16 63.3865C153.277 63.3865 154.076 63.8655 155.034 64.5042C155.193 64.6638 155.353 64.6638 155.832 64.0252L155.992 63.5462ZM160.941 57.7983C159.983 57.7983 159.983 57.958 159.983 58.1176V61.4706H158.386C158.227 61.4706 158.227 61.6302 158.227 62.2689V62.4285C158.227 63.0672 158.227 63.2269 158.386 63.2269H159.983V70.7311C159.983 72.3277 160.143 73.2857 160.941 73.9243C161.42 74.4033 162.218 74.7227 163.336 74.7227C164.294 74.7227 165.252 74.563 165.891 74.084C166.05 73.9243 166.05 73.7647 166.05 73.2857L165.891 72.9663C165.731 72.4874 165.731 72.4874 165.412 72.4874C164.933 72.647 164.294 72.8067 163.815 72.8067C163.176 72.8067 162.857 72.647 162.538 72.3277C162.218 72.0084 162.218 71.3697 162.218 70.4117V63.0672H165.252C165.412 63.0672 165.412 62.9075 165.412 62.2689C165.412 61.6302 165.412 61.4706 165.252 61.4706H162.218V58.1176C162.059 57.958 162.059 57.7983 160.941 57.7983ZM177.386 61.4706C176.588 61.4706 176.588 61.4705 176.429 61.7899L176.269 62.7479C175.63 61.7899 174.513 61.1512 172.916 61.1512C169.723 61.1512 167.328 63.8655 167.328 68.1764C167.328 71.689 168.924 74.7227 172.597 74.7227C174.193 74.7227 175.63 74.084 176.429 72.9663L176.588 74.084C176.588 74.2437 176.748 74.4033 177.546 74.4033H177.706C178.504 74.4033 178.664 74.2437 178.664 74.084C178.504 72.8067 178.504 71.21 178.504 68.8151V65.3025C178.504 63.7059 178.504 62.1092 178.504 61.6302C178.504 61.6302 178.344 61.4706 177.386 61.4706C177.386 61.4706 177.546 61.4706 177.386 61.4706ZM176.269 68.4958C176.269 70.5714 176.109 71.3697 175.63 71.8487C174.992 72.4874 174.034 72.8067 173.235 72.8067C170.681 72.8067 169.882 70.4117 169.882 68.1764C169.882 65.3025 171.16 63.3865 173.395 63.3865C174.513 63.3865 175.63 64.1848 176.269 64.9832V68.4958ZM183.134 61.4706C182.176 61.4706 182.176 61.6302 182.176 61.7899C182.176 62.4285 182.176 64.1848 182.176 65.7815V74.2437C182.176 74.4033 182.336 74.563 183.294 74.563H183.454C184.412 74.563 184.412 74.4033 184.412 74.2437V71.3697C184.412 69.9327 184.412 68.4958 184.412 67.6974C184.412 66.8991 184.571 66.1008 185.05 65.6218C185.689 64.5042 186.647 63.3865 188.403 63.3865C188.563 63.3865 188.723 63.2269 188.723 62.4285V62.1092C188.723 61.6302 188.723 61.4706 188.563 61.4706C188.403 61.4706 188.244 61.4706 188.084 61.4706C186.807 61.4706 185.529 62.4285 184.571 64.5042V61.9496C184.252 61.6302 184.092 61.4706 183.134 61.4706C183.134 61.4706 183.294 61.4706 183.134 61.4706Z" fill="white"/>
</svg>

<svg width="190" height="82" fill="none" xmlns="http://www.w3.org/2000/svg"><path d="M39.118 22.992c-.16-7.824-3.353-12.614-13.891-12.614 0 0-5.908-.16-5.908 0l-.16 16.286c-7.663 1.117-16.285 3.672-17.882 3.991L1.437.64h21.235c13.412 0 22.194.958 28.26 7.185 2.715 2.714 5.27 6.705 5.749 13.89-6.067.32-11.496.48-17.563 1.278zm-.479 3.033c11.017-1.117 18.52-1.596 18.52-1.596 0 6.705-2.714 11.974-6.545 15.168-5.27 4.31-10.538 5.428-24.43 5.428H1.598V33.85c1.916-.48 10.059-3.034 17.722-3.992 0 0-.16 5.748 0 5.748h5.748c5.27-.32 13.412-2.714 13.572-9.58zm136.672 4.471c-5.429-1.437-10.219-3.034-15.009-3.992l9.9-25.706h18.201l-13.092 29.698zm-38.639-7.983L127.252.639h19.799l9.579 24.907c-7.185-1.437-13.411-2.235-19.958-3.033zm21.076 5.907s.798 1.916.958 1.597l.639-1.278c4.949 1.118 9.42 2.874 15.008 4.311l-4.79 11.816h-22.672l-8.782-19.64c6.547.8 12.454 1.757 19.639 3.194zm-49.815-7.504c-6.227-.16-14.37-.32-21.076-.32.16 0 15.647-19.957 15.647-19.957h21.715l-16.286 20.277zm-19.958 2.235c.639 0 13.731 0 21.235.639l17.403 21.076h-22.831L87.975 23.15zm-3.673 0v21.395H66.26V23.95c5.908-.32 11.656-.639 18.042-.799zm0-2.714c-6.546.16-12.294.16-18.201.639V.319h18.201v20.118zm-72.966 38.16c.16-.32.32-.799.16-.799-.958-.798-2.715-1.277-4.152-1.277-2.714 0-5.109 1.756-5.109 4.95 0 5.269 7.824 4.31 7.824 8.621 0 1.757-1.597 2.874-3.513 2.874-1.117 0-2.554-.479-3.672-1.277-.16-.16-.48 0-.639.479l-.16.32c-.319.478-.319.798-.16.957 1.119.799 2.875 1.437 4.95 1.437 3.673 0 5.589-2.075 5.589-5.109 0-5.588-7.824-4.95-7.824-8.622 0-1.277.958-2.554 3.034-2.554 1.277 0 2.235.319 3.033.798.16.16.48 0 .64-.48v-.318zM24.27 61.47c-.798 0-.798 0-.958.319l-.16 1.117c-.638-.957-1.916-1.596-3.353-1.596-3.193 0-5.588 2.714-5.588 7.025 0 3.513 1.597 6.546 5.269 6.546 1.597 0 3.034-.638 3.672-1.756l.16 1.118c0 .16.16.319.958.319h.16c.798 0 .958-.16.958-.32-.16-1.277-.16-2.873-.16-5.268v-7.185c0-.16 0-.32-.958-.32zm-1.277 7.025c0 2.075-.16 2.874-.64 3.353-.638.638-1.596.958-2.394.958-2.555 0-3.353-2.395-3.353-4.63 0-2.875 1.277-4.79 3.513-4.79 1.117 0 2.235.798 2.873 1.596v3.513zm6.705-12.773c-.798 0-1.117.16-1.117.319.16.958.16 4.151.16 6.706v8.302c0 1.278.16 2.076.478 2.555.48.639 1.118.798 1.757.798.32 0 .798-.16 1.117-.16.16 0 .16-.159.16-.798 0-.479 0-.638-.16-.638h-.16c-.798 0-.957-.32-.957-1.278v-8.142c0-3.673 0-6.547-.16-7.345 0-.16-.16-.32-1.118-.32 0 0 .16 0 0 0zm6.227 5.748c-.958 0-.958.16-.958.319v7.504c0 1.916.32 3.353 1.278 4.151.798.799 1.916 1.278 3.193 1.278 1.756 0 3.193-.639 3.992-1.597v1.118c0 .16.16.319.957.319h.16c.958 0 .958-.16.958-.32V61.79c0-.16-.16-.32-.958-.32h-.16c-.798 0-.958.16-.958.32v6.067c0 2.714-.319 3.513-.798 3.992-.639.638-1.756.958-2.714.958s-1.756-.32-2.235-.799c-.48-.638-.639-1.596-.639-3.672V61.79c0-.16-.16-.32-.958-.32h-.16zm22.353-5.748c-.798 0-.958.16-.958.319v5.908c-.638-.48-1.756-.799-2.714-.799-3.992 0-5.908 3.353-5.908 7.025 0 3.992 1.916 6.547 5.27 6.547 1.756 0 3.033-.799 3.672-1.597.319.958.958 1.437 1.756 1.437.479 0 .798 0 1.117-.16.16 0 .16-.16.16-.798v-.16c0-.479-.16-.638-.16-.638-.638 0-.798-.16-.798-1.278V56.202c-.32-.32-.479-.48-1.437-.48zm-.958 12.773c0 2.075-.16 2.874-.638 3.512-.639.639-1.437.799-2.236.799-1.916 0-3.353-1.597-3.353-4.63 0-3.034 1.437-4.95 3.832-4.95.958 0 2.076.32 2.555.958v4.31h-.16zm13.252-6.706c0-.16-.319-.32-1.277-.32s-1.277 0-1.118.32l4.79 12.773c-.958 2.714-1.916 3.672-3.512 3.672-.48 0-.958-.16-1.278-.16-.319-.16-.319 0-.479.64l-.16.319c-.159.479-.159.638.16.798.48.32 1.278.479 1.916.479 1.437 0 2.555-.48 3.673-1.437.798-.798 1.437-2.076 2.075-3.992l4.63-12.932c.16-.32-.16-.32-1.117-.32-.798 0-.958 0-1.118.32l-2.235 6.386c-.479 1.437-.958 2.874-1.277 3.992a37.931 37.931 0 00-1.278-4.152l-2.395-6.386zm19.639 7.664c0-1.437 0-2.714.16-3.353.16-1.118.319-1.437.638-1.757.639-.638 1.437-.957 2.395-.957 2.076 0 3.034 1.596 3.034 4.47 0 2.874-1.437 4.95-4.151 4.95a4.91 4.91 0 01-2.076-.48v-2.873zm-1.277-13.731c-.958 0-1.118.16-1.118.319v17.563c0 .16 0 .16.16.32 1.117.478 2.554.798 4.47.798 4.152 0 6.227-2.715 6.227-7.026 0-1.437-.32-2.714-.798-3.672-.798-1.756-2.235-2.714-4.151-2.714-1.437 0-2.874.639-3.673 1.437v-6.706c.16-.16 0-.32-1.117-.32zm13.731 5.748c-.958 0-.958.16-.958.319v12.454c0 .16 0 .319.958.319h.159c.958 0 .958-.16.958-.32V61.79c0-.16 0-.32-1.117-.32 0 0 .159 0 0 0zm-1.437-3.992c0 .798.638 1.597 1.596 1.597.799 0 1.597-.64 1.597-1.597 0-.958-.639-1.597-1.597-1.597-.958.16-1.596.799-1.596 1.597zm16.445 11.336c.16 0 .16-.16.16-.958 0-1.437-.16-2.874-.798-3.992-.799-1.596-2.236-2.714-4.471-2.714-3.672 0-5.908 2.874-5.908 7.025 0 3.992 2.076 6.547 5.908 6.547 1.597 0 3.193-.32 4.471-1.118.159-.16.159-.32 0-.958l-.16-.32c-.16-.638-.319-.638-.639-.478-1.117.479-2.235.798-3.193.798-1.277 0-2.235-.32-2.874-.958-.798-.639-1.118-1.756-1.277-3.034l8.781.16zm-8.622-1.756c.32-2.555 1.757-3.672 3.513-3.672 2.076 0 3.034 1.915 3.034 3.672h-6.547zm12.614-5.588c-.958 0-.958.16-.958.319v12.455c0 .16.159.319.958.319h.159c.958 0 .958-.16.958-.32v-4.79c0-1.436 0-2.713.16-3.352.16-1.118.319-1.437.639-1.757.638-.638 1.756-.957 2.554-.957 1.118 0 1.916.319 2.236.798.638.638.638 1.596.638 3.672v6.387c0 .16.16.319.958.319h.16c.958 0 .958-.16.958-.32V66.74c0-1.916-.319-3.353-1.277-4.152-.799-.798-1.916-1.277-3.353-1.277-1.437 0-3.034.639-3.992 1.596V61.79c.319-.16.319-.32-.798-.32zm23.47 7.344c.16 0 .16-.16.16-.958 0-1.437-.16-2.874-.798-3.992-.799-1.596-2.236-2.714-4.471-2.714-3.672 0-5.907 2.874-5.907 7.025 0 3.992 2.075 6.547 5.907 6.547 1.597 0 3.193-.32 4.471-1.118.159-.16.159-.32 0-.958l-.16-.32c-.16-.638-.319-.638-.639-.478-1.117.479-2.235.798-3.193.798-1.277 0-2.235-.32-2.874-.958-.798-.639-1.117-1.756-1.277-3.034l8.781.16zm-8.462-1.756c.32-2.555 1.757-3.672 3.513-3.672 2.075 0 3.033 1.915 3.033 3.672h-6.546zm19.32-3.513c.319-.479.319-.798.159-.958-.958-.798-2.235-1.277-3.832-1.277-2.395 0-4.47 1.437-4.47 3.832 0 .958.319 1.756.958 2.395.638.638 1.596.958 2.874 1.277 1.277.32 2.874.639 2.874 2.076s-1.597 1.916-2.715 1.916c-1.117 0-2.235-.48-3.193-.958-.319-.16-.479-.16-.798.479l-.16.319c-.319.479-.319.639-.16.958.958.639 2.395 1.277 3.992 1.277 2.714 0 4.95-1.437 4.95-3.991 0-2.555-2.076-3.353-4.152-3.832-1.117-.32-2.554-.639-2.554-1.916 0-1.278 1.437-1.757 2.395-1.757 1.117 0 1.916.48 2.874 1.118.159.16.319.16.798-.479l.16-.479zm4.949-5.748c-.958 0-.958.16-.958.32v3.353h-1.597c-.159 0-.159.16-.159.798v.16c0 .638 0 .798.159.798h1.597v7.504c0 1.597.16 2.555.958 3.193.479.48 1.277.799 2.395.799.958 0 1.916-.16 2.555-.639.159-.16.159-.32.159-.798l-.159-.32c-.16-.479-.16-.479-.479-.479-.479.16-1.118.32-1.597.32-.639 0-.958-.16-1.277-.48-.32-.319-.32-.957-.32-1.915v-7.345h3.034c.16 0 .16-.16.16-.798 0-.639 0-.798-.16-.798h-3.034v-3.353c-.159-.16-.159-.32-1.277-.32zm16.445 3.673c-.798 0-.798 0-.957.319l-.16.958c-.639-.958-1.756-1.597-3.353-1.597-3.193 0-5.588 2.714-5.588 7.025 0 3.513 1.596 6.547 5.269 6.547 1.596 0 3.033-.639 3.832-1.757l.159 1.118c0 .16.16.32.958.32h.16c.798 0 .958-.16.958-.32-.16-1.277-.16-2.874-.16-5.269v-7.185s-.16-.16-1.118-.16c0 0 .16 0 0 0zm-1.117 7.025c0 2.075-.16 2.874-.639 3.353-.638.638-1.596.958-2.395.958-2.554 0-3.353-2.395-3.353-4.63 0-2.875 1.278-4.79 3.513-4.79 1.118 0 2.235.798 2.874 1.596v3.513zm6.865-7.025c-.958 0-.958.16-.958.319v12.455c0 .16.16.319 1.118.319h.16c.958 0 .958-.16.958-.32v-6.546c0-.798.159-1.596.638-2.075.639-1.118 1.597-2.236 3.353-2.236.16 0 .32-.16.32-.958v-.319c0-.479 0-.638-.16-.638h-.479c-1.277 0-2.555.958-3.513 3.033V61.95c-.319-.32-.479-.48-1.437-.48 0 0 .16 0 0 0z" fill="#fff"/></svg>
